X: 6
T: A Jig for Doone Mackay
C: Tony Pisano 2002
R: jig
M: 6/8
L: 1/8
K: D
|:A,B,D E2D|EFE D3|G2G2FD|FED EDB,|!

A,B,D E2D|EFE D2F|1G2G2 AB|A3AFE:|2A2A2AB|A3ABc:|!

d2d2cd|cAc BAF|G2G2AB|A3ABA|!

d2d2cA|BAF AFE|D2D DEF|E3ABA|!

d2d2cd|cBA BAF|G2G GAB|A3AFE|!

D2D2EF|G2F EDB,|A,3-A,3|A,2zA,2B,:||

